X: 129
T:La Mazurka souto li pin
T:r : La petite Voisine
R:Mazurka
A:Provence
O:France
C:Trad.
C:Paroles de Charloun Rieu
Z:Transcrit et/ou corrig par Michel BELLON - 2005-07-24
Z:Pour toute observation mailto:galouvielle@free.fr
M:3/4
L:1/8
Q:1/4=160
K:Bbmaj
%%continueall 1
|:F2|d2^c2d2|B4F2|f2=e2f2|d4f2|b2a2g2|e2e2c2|1 a2g2f2| d4:|2 g2f2A2|B4|:
